X: 25661
T: Martin Rochford's
R: reel
M: 4/4
K: Gmajor
G3F GABd|dBAc Be e2|GEDE G2 ec|dBAc BEEF|
G3F GABd|dBAc Be e2|GEDE G2 ec|dBAc BEEf||
g2 eg fedc|Beed Beef|g2 eg fedB|AcBA GE E2|
g2 eg fedc|Beed e3f|gb b2 fa a2|dBAc BEEF||

